src/.vuepress/public/assets/websites/xicons.svg

<svg width="128" height="128" viewBox="0 0 128 128" fill="none" xmlns="http://www.w3.org/2000/svg">
    <path
        d="M79.2617 104L57.2217 73.144L78.2177 44.028H60.3537L48.2897 60.732L36.3417 44.028H18.0137L39.1257 73.492L17.0857 104H34.9497L48.0577 85.904L61.0497 104H79.2617ZM96.9408 35.792C101.929 35.792 105.989 31.616 105.989 26.512C105.989 21.756 101.929 17.464 96.9408 17.464C91.7208 17.464 87.6608 21.756 87.6608 26.512C87.6608 31.616 91.7208 35.792 96.9408 35.792ZM88.3568 104H105.293V44.028H88.3568V104Z"
        fill="#303030" />
</svg>

<svg xmlns="http://www.w3.org/2000/svg" width="128" height="128" fill="none" viewBox="0 0 128 128"><path fill="#303030" d="m79.262 104-22.04-30.856 20.996-29.116H60.354L48.29 60.732 36.342 44.028H18.014l21.112 29.464L17.086 104H34.95l13.108-18.096L61.05 104zM96.94 35.792c4.988 0 9.048-4.176 9.048-9.28 0-4.756-4.06-9.048-9.048-9.048-5.22 0-9.28 4.292-9.28 9.048 0 5.104 4.06 9.28 9.28 9.28M88.357 104h16.936V44.028H88.357z"/></svg>
